X: 39395
T: Tap Room, The
R: reel
M: 4/4
K: Edorian
EGBd cABc|d2AF DEED|EGBd cABc|1 dBAd BEED:|2 dBAd BEEA||
Beed egfe|defg afed|Beed egfe|dBAd BEEA|
Beed egfe|defg a2fa|bgeg ~f3e|dBAd BEED||

